src/icons/svg/buymeacoffee.svg

<svg xmlns="http://www.w3.org/2000/svg" width="884pt" height="1279pt" style="isolation:isolate" viewBox="0 0 884 1279">
    <defs>
        <clipPath id="a">
            <path d="M0 0h884v1279H0z"/>
        </clipPath>
    </defs>
    <g clip-path="url(#a)">
        <path d="m791.109 297.518-.878-.516-2.03-.619a4.833 4.833 0 0 0 2.908 1.135ZM803.896 388.891l-.98.275M791.484 297.377a1.773 1.773 0 0 1-.366-.087 1.42 1.42 0 0 0 0 .244.738.738 0 0 0 .366-.157Z"/>
        <path d="M791.113 297.529h.131v-.082l-.131.082ZM803.111 388.726l1.48-.843.551-.31.499-.533a8.447 8.447 0 0 0-2.53 1.686ZM793.669 299.515l-1.446-1.377-.98-.533a4.077 4.077 0 0 0 2.426 1.91ZM430.019 1186.18a7.55 7.55 0 0 0-2.943 2.27l.912-.58c.62-.57 1.497-1.24 2.031-1.69ZM641.187 1144.63c0-1.3-.636-1.06-.482 3.58 0-.37.155-.75.224-1.11.086-.83.155-1.64.258-2.47ZM619.284 1186.18a7.546 7.546 0 0 0-2.942 2.27l.912-.58c.619-.57 1.497-1.24 2.03-1.69ZM281.304 1196.06a6.299 6.299 0 0 0-3.097-1.45c.929.45 1.858.9 2.477 1.24l.62.21ZM247.841 1164.01a9.895 9.895 0 0 0-1.222-3.85c.474 1.23.87 2.5 1.187 3.78l.035.07ZM472.623 590.836c-45.941 19.667-98.077 41.966-165.647 41.966a313.577 313.577 0 0 1-83.623-11.528l46.733 479.806a80.166 80.166 0 0 0 25.593 52.38 80.18 80.18 0 0 0 54.313 21.19s66.262 3.44 88.373 3.44c23.796 0 95.151-3.44 95.151-3.44 20.12 0 39.503-7.57 54.303-21.2a80.149 80.149 0 0 0 25.587-52.37l50.053-530.204c-22.368-7.639-44.943-12.715-70.391-12.715-44.014-.017-79.477 15.142-120.445 32.675ZM78.689 386.132l.791.74.516.31a7.958 7.958 0 0 0-1.307-1.05Z"/>
        <path d="m879.567 341.849-7.037-35.497c-6.315-31.849-20.648-61.943-53.34-73.454-10.479-3.683-22.369-5.265-30.404-12.888-8.035-7.622-10.41-19.46-12.268-30.438-3.442-20.149-6.676-40.315-10.204-60.429-3.045-17.293-5.454-36.719-13.386-52.583-10.324-21.302-31.746-33.759-53.048-42.001a305.56 305.56 0 0 0-33.363-10.324C613.297 10.195 557.342 5.033 502.591 2.09a1376.288 1376.288 0 0 0-197.169 3.27c-48.797 4.439-100.193 9.807-146.564 26.687-16.948 6.177-34.413 13.593-47.3 26.687-15.813 16.088-20.975 40.969-9.43 61.031 8.208 14.247 22.111 24.313 36.857 30.972a298.948 298.948 0 0 0 59.844 19.478c57.297 12.664 116.642 17.636 175.178 19.753a1333.99 1333.99 0 0 0 194.433-6.35 1106.995 1106.995 0 0 0 47.817-6.314c18.738-2.874 30.765-27.376 25.242-44.445-6.608-20.406-24.365-28.321-44.444-25.241-2.96.464-5.902.894-8.862 1.324l-2.133.31c-6.803.861-13.605 1.663-20.407 2.409a1083.055 1083.055 0 0 1-42.259 3.717c-31.626 2.202-63.337 3.217-95.031 3.269-31.144 0-62.305-.878-93.38-2.925a1187.382 1187.382 0 0 1-42.431-3.545 1019.94 1019.94 0 0 1-19.219-2.168l-6.092-.774-1.324-.189-6.315-.912c-12.905-1.945-25.81-4.181-38.577-6.883a5.798 5.798 0 0 1 0-11.322h.241c11.064-2.357 22.213-4.37 33.397-6.125 3.729-.585 7.468-1.159 11.219-1.721h.103c7.003-.464 14.041-1.72 21.009-2.546a1336.135 1336.135 0 0 1 182.544-6.436c29.577.861 59.138 2.599 88.578 5.593a973.95 973.95 0 0 1 18.927 2.116c2.409.293 4.835.637 7.262.929l4.886.706a678.199 678.199 0 0 1 42.517 7.725c20.889 4.543 47.714 6.023 57.005 28.907 2.96 7.261 4.302 15.331 5.936 22.953l2.082 9.722c.055.174.095.353.121.533 4.921 22.942 9.848 45.884 14.78 68.826a12.608 12.608 0 0 1-2.006 9.871 12.612 12.612 0 0 1-8.593 5.254h-.138l-3.011.413-2.976.395c-9.43 1.228-18.87 2.375-28.322 3.442a1829.308 1829.308 0 0 1-55.938 5.506 1957.204 1957.204 0 0 1-111.55 6.074c-18.984.504-37.963.74-56.936.705a1975.736 1975.736 0 0 1-225.989-13.146c-8.122-.963-16.243-1.996-24.365-3.045 6.298.809-4.577-.62-6.779-.929a1447.245 1447.245 0 0 1-15.486-2.254c-17.327-2.599-34.55-5.799-51.843-8.604-20.906-3.441-40.899-1.72-59.809 8.604a86.996 86.996 0 0 0-36.013 37.338c-8.156 16.862-10.582 35.221-14.23 53.34C4 342.193-1.678 361.688.473 380.288c4.628 40.143 32.692 72.766 73.058 80.062 37.975 6.882 76.156 12.457 114.44 17.206a2114.804 2114.804 0 0 0 489.988 2.822 25.814 25.814 0 0 1 21.003 7.339 25.806 25.806 0 0 1 7.491 20.948l-3.82 37.132-23.091 225.077a178840.62 178840.62 0 0 1-31.126 302.866c-2.203 21.84-2.512 44.36-6.659 65.94-6.539 33.93-29.509 54.77-63.027 62.39a439.172 439.172 0 0 1-93.569 10.94c-34.912.19-69.806-1.36-104.718-1.17-37.27.21-82.918-3.23-111.687-30.97-25.277-24.36-28.77-62.51-32.211-95.5-4.588-43.67-9.136-87.331-13.645-130.989l-25.293-242.766-16.363-157.077c-.276-2.598-.551-5.162-.809-7.778-1.962-18.737-15.228-37.079-36.134-36.133-17.894.791-38.232 16.002-36.133 36.133l12.13 116.454 25.087 240.89a378681.11 378681.11 0 0 1 21.388 205.306c1.377 13.11 2.667 26.26 4.112 39.37 7.864 71.65 62.58 110.26 130.339 121.13 39.575 6.37 80.113 7.68 120.273 8.33 51.482.83 103.48 2.81 154.118-6.52 75.038-13.77 131.337-63.87 139.372-141.59 2.295-22.44 4.589-44.88 6.883-67.33 7.628-74.241 15.245-148.487 22.85-222.739l24.881-242.61 11.408-111.188a25.812 25.812 0 0 1 20.785-22.696c21.456-4.181 41.967-11.322 57.229-27.651 24.295-25.998 29.13-59.895 20.544-94.067ZM72.43 365.835c.327-.155-.275 2.649-.533 3.957-.052-1.979.051-3.734.533-3.957Zm2.082 16.105c.172-.121.688.568 1.222 1.394-.809-.758-1.325-1.325-1.239-1.394h.017Zm2.048 2.701c.74 1.256 1.135 2.048 0 0Zm4.112 3.338h.103c0 .121.19.241.258.362a2.641 2.641 0 0 0-.378-.362h.017Zm720.124-4.99c-7.708 7.33-19.323 10.737-30.8 12.441-128.704 19.099-259.283 28.769-389.399 24.502-93.121-3.183-185.261-13.525-277.453-26.55-9.034-1.273-18.824-2.925-25.036-9.584-11.7-12.561-5.953-37.854-2.908-53.03 2.788-13.903 8.122-32.434 24.657-34.413 25.81-3.028 55.783 7.863 81.318 11.735a1539.798 1539.798 0 0 0 92.57 11.27c132.18 12.045 266.58 10.169 398.175-7.45a1661.346 1661.346 0 0 0 71.699-11.236c21.216-3.803 44.737-10.943 57.556 11.029 8.792 14.97 9.962 34.998 8.603 51.912a28.942 28.942 0 0 1-8.999 19.374h.017Z"/>
    </g>
</svg>

<?xml version="1.0" encoding="UTF-8" standalone="no"?><svg xmlns="http://www.w3.org/2000/svg" xmlns:xlink="http://www.w3.org/1999/xlink" style="isolation:isolate" viewBox="0 0 884 1279" width="884pt" height="1279pt"><defs><clipPath id="_clipPath_HVV9jgnW0Wwdm7oM7MBnOzz7pYaiEbbJ"><rect width="884" height="1279"/></clipPath></defs><g clip-path="url(#_clipPath_HVV9jgnW0Wwdm7oM7MBnOzz7pYaiEbbJ)"><path d=" M 791.109 297.518 L 790.231 297.002 L 788.201 296.383 C 789.018 297.072 790.04 297.472 791.109 297.518 L 791.109 297.518 L 791.109 297.518 Z " fill="rgb(0,0,0)"/><line x1="803.896" y1="388.891" x2="802.916" y2="389.166"/><path d=" M 791.484 297.377 C 791.359 297.361 791.237 297.332 791.118 297.29 C 791.111 297.371 791.111 297.453 791.118 297.534 C 791.252 297.516 791.379 297.462 791.484 297.377 L 791.484 297.377 L 791.484 297.377 Z " fill="rgb(0,0,0)"/><path d=" M 791.113 297.529 L 791.244 297.529 L 791.244 297.447 L 791.113 297.529 L 791.113 297.529 Z " fill="rgb(0,0,0)"/><path d=" M 803.111 388.726 L 804.591 387.883 L 805.142 387.573 L 805.641 387.04 C 804.702 387.444 803.846 388.016 803.111 388.726 L 803.111 388.726 L 803.111 388.726 Z " fill="rgb(0,0,0)"/><path d=" M 793.669 299.515 L 792.223 298.138 L 791.243 297.605 C 791.77 298.535 792.641 299.221 793.669 299.515 L 793.669 299.515 L 793.669 299.515 Z " fill="rgb(0,0,0)"/><path d=" M 430.019 1186.18 C 428.864 1186.68 427.852 1187.46 427.076 1188.45 L 427.988 1187.87 C 428.608 1187.3 429.485 1186.63 430.019 1186.18 Z " fill="rgb(0,0,0)"/><path d=" M 641.187 1144.63 C 641.187 1143.33 640.551 1143.57 640.705 1148.21 C 640.705 1147.84 640.86 1147.46 640.929 1147.1 C 641.015 1146.27 641.084 1145.46 641.187 1144.63 Z " fill="rgb(0,0,0)"/><path d=" M 619.284 1186.18 C 618.129 1186.68 617.118 1187.46 616.342 1188.45 L 617.254 1187.87 C 617.873 1187.3 618.751 1186.63 619.284 1186.18 Z " fill="rgb(0,0,0)"/><path d=" M 281.304 1196.06 C 280.427 1195.3 279.354 1194.8 278.207 1194.61 C 279.136 1195.06 280.065 1195.51 280.684 1195.85 L 281.304 1196.06 L 281.304 1196.06 Z " fill="rgb(0,0,0)"/><path d=" M 247.841 1164.01 C 247.704 1162.66 247.288 1161.35 246.619 1160.16 C 247.093 1161.39 247.489 1162.66 247.806 1163.94 L 247.841 1164.01 L 247.841 1164.01 Z " fill="rgb(0,0,0)"/><path d=" M 472.623 590.836 C 426.682 610.503 374.546 632.802 306.976 632.802 C 278.71 632.746 250.58 628.868 223.353 621.274 L 270.086 1101.08 C 271.74 1121.13 280.876 1139.83 295.679 1153.46 C 310.482 1167.09 329.87 1174.65 349.992 1174.65 C 349.992 1174.65 416.254 1178.09 438.365 1178.09 C 462.161 1178.09 533.516 1174.65 533.516 1174.65 C 553.636 1174.65 573.019 1167.08 587.819 1153.45 C 602.619 1139.82 611.752 1121.13 613.406 1101.08 L 663.459 570.876 C 641.091 563.237 618.516 558.161 593.068 558.161 C 549.054 558.144 513.591 573.303 472.623 590.836 Z " fill="rgb(0,0,0)"/><path d=" M 78.689 386.132 L 79.48 386.872 L 79.996 387.182 C 79.599 386.787 79.16 386.435 78.689 386.132 L 78.689 386.132 L 78.689 386.132 Z " fill="rgb(0,0,0)"/><path d=" M 879.567 341.849 L 872.53 306.352 C 866.215 274.503 851.882 244.409 819.19 232.898 C 808.711 229.215 796.821 227.633 788.786 220.01 C 780.751 212.388 778.376 200.55 776.518 189.572 C 773.076 169.423 769.842 149.257 766.314 129.143 C 763.269 111.85 760.86 92.424 752.928 76.56 C 742.604 55.258 721.182 42.801 699.88 34.559 C 688.965 30.484 677.826 27.038 666.517 24.235 C 613.297 10.195 557.342 5.033 502.591 2.09 C 436.875 -1.536 370.983 -0.443 305.422 5.36 C 256.625 9.799 205.229 15.167 158.858 32.047 C 141.91 38.224 124.445 45.64 111.558 58.734 C 95.745 74.822 90.583 99.703 102.128 119.765 C 110.336 134.012 124.239 144.078 138.985 150.737 C 158.192 159.317 178.251 165.846 198.829 170.215 C 256.126 182.879 315.471 187.851 374.007 189.968 C 438.887 192.586 503.87 190.464 568.44 183.618 C 584.408 181.863 600.347 179.758 616.257 177.304 C 634.995 174.43 647.022 149.928 641.499 132.859 C 634.891 112.453 617.134 104.538 597.055 107.618 C 594.095 108.082 591.153 108.512 588.193 108.942 L 586.06 109.252 C 579.257 110.113 572.455 110.915 565.653 111.661 C 551.601 113.175 537.515 114.414 523.394 115.378 C 491.768 117.58 460.057 118.595 428.363 118.647 C 397.219 118.647 366.058 117.769 334.983 115.722 C 320.805 114.793 306.661 113.611 292.552 112.177 C 286.134 111.506 279.733 110.801 273.333 110.009 L 267.241 109.235 L 265.917 109.046 L 259.602 108.134 C 246.697 106.189 233.792 103.953 221.025 101.251 C 219.737 100.965 218.584 100.249 217.758 99.219 C 216.932 98.19 216.482 96.91 216.482 95.59 C 216.482 94.271 216.932 92.99 217.758 91.961 C 218.584 90.932 219.737 90.215 221.025 89.929 L 221.266 89.929 C 232.33 87.572 243.479 85.559 254.663 83.804 C 258.392 83.219 262.131 82.645 265.882 82.083 L 265.985 82.083 C 272.988 81.619 280.026 80.363 286.994 79.537 C 347.624 73.23 408.614 71.08 469.538 73.101 C 499.115 73.962 528.676 75.7 558.116 78.694 C 564.448 79.347 570.746 80.036 577.043 80.81 C 579.452 81.103 581.878 81.447 584.305 81.739 L 589.191 82.445 C 603.438 84.567 617.61 87.142 631.708 90.17 C 652.597 94.713 679.422 96.193 688.713 119.077 C 691.673 126.338 693.015 134.408 694.649 142.03 L 696.731 151.752 C 696.786 151.926 696.826 152.105 696.852 152.285 C 701.773 175.227 706.7 198.169 711.632 221.111 C 711.994 222.806 712.002 224.557 711.657 226.255 C 711.312 227.954 710.621 229.562 709.626 230.982 C 708.632 232.401 707.355 233.6 705.877 234.504 C 704.398 235.408 702.75 235.997 701.033 236.236 L 700.895 236.236 L 697.884 236.649 L 694.908 237.044 C 685.478 238.272 676.038 239.419 666.586 240.486 C 647.968 242.608 629.322 244.443 610.648 245.992 C 573.539 249.077 536.356 251.102 499.098 252.066 C 480.114 252.57 461.135 252.806 442.162 252.771 C 366.643 252.712 291.189 248.322 216.173 239.625 C 208.051 238.662 199.93 237.629 191.808 236.58 C 198.106 237.389 187.231 235.96 185.029 235.651 C 179.867 234.928 174.705 234.177 169.543 233.397 C 152.216 230.798 134.993 227.598 117.7 224.793 C 96.794 221.352 76.801 223.073 57.891 233.397 C 42.369 241.891 29.806 254.916 21.878 270.735 C 13.722 287.597 11.296 305.956 7.648 324.075 C 4 342.193 -1.678 361.688 0.473 380.288 C 5.101 420.431 33.165 453.054 73.531 460.35 C 111.506 467.232 149.687 472.807 187.971 477.556 C 338.361 495.975 490.294 498.178 641.155 484.129 C 653.44 482.982 665.708 481.732 677.959 480.378 C 681.786 479.958 685.658 480.398 689.292 481.668 C 692.926 482.938 696.23 485.005 698.962 487.717 C 701.694 490.429 703.784 493.718 705.08 497.342 C 706.377 500.967 706.846 504.836 706.453 508.665 L 702.633 545.797 C 694.936 620.828 687.239 695.854 679.542 770.874 C 671.513 849.657 663.431 928.434 655.298 1007.2 C 653.004 1029.39 650.71 1051.57 648.416 1073.74 C 646.213 1095.58 645.904 1118.1 641.757 1139.68 C 635.218 1173.61 612.248 1194.45 578.73 1202.07 C 548.022 1209.06 516.652 1212.73 485.161 1213.01 C 450.249 1213.2 415.355 1211.65 380.443 1211.84 C 343.173 1212.05 297.525 1208.61 268.756 1180.87 C 243.479 1156.51 239.986 1118.36 236.545 1085.37 C 231.957 1041.7 227.409 998.039 222.9 954.381 L 197.607 711.615 L 181.244 554.538 C 180.968 551.94 180.693 549.376 180.435 546.76 C 178.473 528.023 165.207 509.681 144.301 510.627 C 126.407 511.418 106.069 526.629 108.168 546.76 L 120.298 663.214 L 145.385 904.104 C 152.532 972.528 159.661 1040.96 166.773 1109.41 C 168.15 1122.52 169.44 1135.67 170.885 1148.78 C 178.749 1220.43 233.465 1259.04 301.224 1269.91 C 340.799 1276.28 381.337 1277.59 421.497 1278.24 C 472.979 1279.07 524.977 1281.05 575.615 1271.72 C 650.653 1257.95 706.952 1207.85 714.987 1130.13 C 717.282 1107.69 719.576 1085.25 721.87 1062.8 C 729.498 988.559 737.115 914.313 744.72 840.061 L 769.601 597.451 L 781.009 486.263 C 781.577 480.749 783.905 475.565 787.649 471.478 C 791.392 467.391 796.352 464.617 801.794 463.567 C 823.25 459.386 843.761 452.245 859.023 435.916 C 883.318 409.918 888.153 376.021 879.567 341.849 Z  M 72.43 365.835 C 72.757 365.68 72.155 368.484 71.897 369.792 C 71.845 367.813 71.948 366.058 72.43 365.835 Z  M 74.512 381.94 C 74.684 381.819 75.2 382.508 75.734 383.334 C 74.925 382.576 74.409 382.009 74.495 381.94 L 74.512 381.94 L 74.512 381.94 Z  M 76.56 384.641 C 77.3 385.897 77.695 386.689 76.56 384.641 L 76.56 384.641 L 76.56 384.641 Z  M 80.672 387.979 L 80.775 387.979 C 80.775 388.1 80.965 388.22 81.033 388.341 C 80.919 388.208 80.793 388.087 80.655 387.979 L 80.672 387.979 L 80.672 387.979 Z  M 800.796 382.989 C 793.088 390.319 781.473 393.726 769.996 395.43 C 641.292 414.529 510.713 424.199 380.597 419.932 C 287.476 416.749 195.336 406.407 103.144 393.382 C 94.11 392.109 84.32 390.457 78.108 383.798 C 66.408 371.237 72.155 345.944 75.2 330.768 C 77.988 316.865 83.322 298.334 99.857 296.355 C 125.667 293.327 155.64 304.218 181.175 308.09 C 211.917 312.781 242.774 316.538 273.745 319.36 C 405.925 331.405 540.325 329.529 671.92 311.91 C 695.905 308.686 719.805 304.941 743.619 300.674 C 764.835 296.871 788.356 289.731 801.175 311.703 C 809.967 326.673 811.137 346.701 809.778 363.615 C 809.359 370.984 806.139 377.915 800.779 382.989 L 800.796 382.989 L 800.796 382.989 Z " fill="rgb(0,0,0)"/></g></svg>
